icons/1_Primary/ORCID.svg

<svg width="1024" height="1024" viewBox="0 0 1024 1024" fill="none" xmlns="http://www.w3.org/2000/svg">
<g clip-path="url(#clip0_2_3063)">
<path d="M512 1024C794.77 1024 1024 794.77 1024 512C1024 229.23 794.77 0 512 0C229.23 0 0 229.23 0 512C0 794.77 229.23 1024 512 1024Z" fill="#98DC9A"/>
<path d="M373.7 709.3H323.3V358.5H373.7V709.3ZM447.7 709.5H584.6C700.2 709.5 770.6 624.1 770.6 534C770.6 451.2 713.6 358.5 583.9 358.5H447.7V709.5ZM498.1 664.1V404.1H575.7C673.9 404.1 718.8 463.7 718.8 534.1C718.8 577.3 692.6 664.1 578.3 664.1H498.1ZM348.5 252.4C341.953 252.4 335.554 254.341 330.111 257.978C324.667 261.615 320.425 266.785 317.92 272.833C315.414 278.881 314.759 285.537 316.036 291.958C317.313 298.378 320.466 304.276 325.095 308.905C329.724 313.534 335.622 316.687 342.042 317.964C348.463 319.241 355.118 318.586 361.167 316.08C367.215 313.575 372.384 309.333 376.022 303.889C379.659 298.446 381.6 292.047 381.6 285.5C381.613 281.15 380.766 276.839 379.107 272.818C377.448 268.796 375.011 265.142 371.935 262.065C368.858 258.989 365.204 256.552 361.182 254.893C357.161 253.234 352.85 252.387 348.5 252.4Z" fill="white"/>
</g>
<defs>
<clipPath id="clip0_2_3063">
<rect width="1024" height="1024" fill="white"/>
</clipPath>
</defs>
</svg>

<svg xmlns="http://www.w3.org/2000/svg" width="1024" height="1024" fill="none">
   <g clip-path="url(#a)">
      <path fill="#98DC9A" d="M512 1024c282.77 0 512-229.23 512-512S794.77 0 512 0 0 229.23 0 512s229.23 512 512 512Z"/>
      <path fill="#fff" d="M373.7 709.3h-50.4V358.5h50.4v350.8Zm74 .2h136.9c115.6 0 186-85.4 186-175.5 0-82.8-57-175.5-186.7-175.5H447.7v351Zm50.4-45.4v-260h77.6c98.2 0 143.1 59.6 143.1 130 0 43.2-26.2 130-140.5 130h-80.2ZM348.5 252.4a33.097 33.097 0 0 0-32.464 39.558A33.1 33.1 0 0 0 381.6 285.5a32.996 32.996 0 0 0-20.418-30.607A32.996 32.996 0 0 0 348.5 252.4Z"/>
   </g>
   <defs>
      <clipPath id="a">
         <path fill="#fff" d="M0 0h1024v1024H0z"/>
      </clipPath>
   </defs>
</svg>
